X:672
T:Reel 672
M:4/4
K:Amaj
L:1/8
ED|CA,B,A, CA,B,G,|A,2CE AFED|CA,B,A, CA,B,A,|G,E,F,G, A,2ED|CA,B,A, CA,B,G,|A,2CE AFED|CA,B,A, CA,B,A,|G,E,F,G, A,2:|AF|EAcA GABG|EDCE EFGE|F2FA BAGA|FEFG AGAF|EAGA BAGB|AGFG A2AF|EDCA, A,CB,A|GEFG A2|
